X:873
T:Sucky Bids Me (sic)
R:Reel
B:The Athole Collection
M:C|
L:1/8
K:G
G2 DE G2 e2|dGBG AFED|G2DE G2e2|dBcA G2G2:|
d2 Bc d2g2|afad ege^c|d2Bc d2g2|fge^c d3e|dgfe d^cBG|
G2GT AFE>D|G2 DE G2e2|dBcA G3||

